svg/emoji_u1f518.svg

<svg enable-background="new 0 0 128 128" viewBox="0 0 128 128" xmlns="http://www.w3.org/2000/svg"><radialGradient id="b" cx="63.999" cy="64" r="60" gradientUnits="userSpaceOnUse"><stop stop-color="#039BE5" offset="0"/><stop stop-color="#079EE7" offset=".3237"/><stop stop-color="#13A6EC" offset=".65"/><stop stop-color="#27B5F5" offset=".9766"/><stop stop-color="#29B6F6" offset="1"/></radialGradient><circle cx="64" cy="64" r="60" fill="url(#b)"/><g opacity=".2"><path d="M64,7c31.43,0,57,25.57,57,57s-25.57,57-57,57S7,95.43,7,64S32.57,7,64,7 M64,4 C30.86,4,4,30.86,4,64s26.86,60,60,60s60-26.86,60-60S97.14,4,64,4L64,4z" fill="#424242"/></g><g opacity=".2"><path d="m63.99 20c9.79 0 19.57 3.25 27.61 9.73 1.21 0.98 2.39 2.02 3.52 3.15s2.17 2.3 3.15 3.52c13.95 17.28 12.91 42.65-3.15 58.71-8.6 8.59-19.86 12.89-31.12 12.89s-22.52-4.3-31.11-12.89c-17.18-17.18-17.18-45.04 0-62.23 8.59-8.59 19.84-12.88 31.1-12.88m0-3c-12.55 0-24.35 4.89-33.22 13.76-18.33 18.33-18.33 48.15 0 66.47 8.87 8.88 20.68 13.77 33.23 13.77s24.36-4.89 33.24-13.77c17.03-17.03 18.48-44 3.36-62.72-1.11-1.37-2.21-2.6-3.36-3.75-1.16-1.16-2.39-2.26-3.75-3.36-8.31-6.71-18.79-10.4-29.5-10.4z" fill="#424242"/></g><radialGradient id="a" cx="63.667" cy="24" r="82.538" gradientTransform="matrix(4.4999e-11 1 -.7673 3.4529e-11 82.082 -39.667)" gradientUnits="userSpaceOnUse"><stop stop-color="#B3E5FC" offset="0"/><stop stop-color="#4FC3F7" offset="1"/></radialGradient><path d="m98.27 36.4c-0.98-1.21-2.02-2.39-3.15-3.52s-2.3-2.17-3.52-3.15c-17.28-13.95-42.65-12.91-58.71 3.15-17.18 17.18-17.18 45.04 0 62.23 17.18 17.18 45.04 17.18 62.23 0 16.05-16.06 17.1-41.43 3.15-58.71z" fill="url(#a)"/><g opacity=".2"><path d="m63.99 23c9.35 0 18.48 3.22 25.72 9.07 1.2 0.97 2.27 1.93 3.28 2.94s1.97 2.08 2.94 3.28c13.18 16.33 11.92 39.85-2.94 54.71-7.74 7.73-18.04 12-28.99 12s-21.25-4.27-28.99-12.01c-7.75-7.74-12.01-18.04-12.01-28.99s4.26-21.25 12.01-29c7.74-7.74 18.03-12 28.98-12m0-3c-11.26 0-22.51 4.29-31.1 12.88-17.18 17.18-17.18 45.04 0 62.23 8.59 8.59 19.85 12.89 31.11 12.89s22.52-4.3 31.11-12.89c16.06-16.06 17.1-41.43 3.15-58.71-0.98-1.21-2.02-2.39-3.15-3.52s-2.3-2.17-3.52-3.15c-8.03-6.48-17.82-9.73-27.6-9.73z" fill="#eee"/></g></svg>

<svg width="128" height="128" style="enable-background:new 0 0 128 128;" xmlns="http://www.w3.org/2000/svg" xmlns:xlink="http://www.w3.org/1999/xlink">
  <g>
    <g>
      <radialGradient id="SVGID_1_" cx="63.9987" cy="64" gradientUnits="userSpaceOnUse" r="60">
        <stop offset="0" style="stop-color:#039BE5"/>
        <stop offset="0.3237" style="stop-color:#079EE7"/>
        <stop offset="0.65" style="stop-color:#13A6EC"/>
        <stop offset="0.9766" style="stop-color:#27B5F5"/>
        <stop offset="1" style="stop-color:#29B6F6"/>
      </radialGradient>
      <circle cx="64" cy="64" r="60" style="fill:url(#SVGID_1_);"/>
      <g style="opacity:0.2;">
        <path d="M64,7c31.43,0,57,25.57,57,57s-25.57,57-57,57S7,95.43,7,64S32.57,7,64,7 M64,4 C30.86,4,4,30.86,4,64s26.86,60,60,60s60-26.86,60-60S97.14,4,64,4L64,4z" style="fill:#424242;"/>
      </g>
    </g>
    <g style="opacity:0.2;">
      <path d="M63.99,20c9.79,0,19.57,3.25,27.61,9.73c1.21,0.98,2.39,2.02,3.52,3.15 c1.13,1.13,2.17,2.3,3.15,3.52c13.95,17.28,12.91,42.65-3.15,58.71C86.52,103.7,75.26,108,64,108s-22.52-4.3-31.11-12.89 c-17.18-17.18-17.18-45.04,0-62.23C41.48,24.29,52.73,20,63.99,20 M63.99,17c-12.55,0-24.35,4.89-33.22,13.76 c-18.33,18.33-18.33,48.15,0,66.47C39.64,106.11,51.45,111,64,111s24.36-4.89,33.24-13.77c17.03-17.03,18.48-44,3.36-62.72 c-1.11-1.37-2.21-2.6-3.36-3.75c-1.16-1.16-2.39-2.26-3.75-3.36C85.18,20.69,74.7,17,63.99,17L63.99,17z" style="fill:#424242;"/>
    </g>
    <g>
      <g>
        <radialGradient id="SVGID_2_" cx="63.6667" cy="24" gradientTransform="matrix(4.499940e-11 1 -0.7673 3.452914e-11 82.0825 -39.6667)" gradientUnits="userSpaceOnUse" r="82.5379">
          <stop offset="0" style="stop-color:#B3E5FC"/>
          <stop offset="1" style="stop-color:#4FC3F7"/>
        </radialGradient>
        <path d="M98.27,36.4c-0.98-1.21-2.02-2.39-3.15-3.52c-1.13-1.13-2.3-2.17-3.52-3.15 c-17.28-13.95-42.65-12.91-58.71,3.15c-17.18,17.18-17.18,45.04,0,62.23c17.18,17.18,45.04,17.18,62.23,0 C111.17,79.05,112.22,53.68,98.27,36.4z" style="fill:url(#SVGID_2_);"/>
      </g>
      <g style="opacity:0.2;">
        <path d="M63.99,23c9.35,0,18.48,3.22,25.72,9.07c1.2,0.97,2.27,1.93,3.28,2.94 c1.01,1.01,1.97,2.08,2.94,3.28c13.18,16.33,11.92,39.85-2.94,54.71C85.25,100.73,74.95,105,64,105 c-10.95,0-21.25-4.27-28.99-12.01C27.26,85.25,23,74.95,23,64S27.26,42.75,35.01,35C42.75,27.26,53.04,23,63.99,23 M63.99,20 c-11.26,0-22.51,4.29-31.1,12.88c-17.18,17.18-17.18,45.04,0,62.23C41.48,103.7,52.74,108,64,108c11.26,0,22.52-4.3,31.11-12.89 c16.06-16.06,17.1-41.43,3.15-58.71c-0.98-1.21-2.02-2.39-3.15-3.52c-1.13-1.13-2.3-2.17-3.52-3.15 C83.56,23.25,73.77,20,63.99,20L63.99,20z" style="fill:#EEEEEE;"/>
      </g>
    </g>
  </g>
</svg>
